**kern	**kern	**dynam
*part1	*part1	*part1
*staff2	*staff1	*
*I"Piano	*	*
*clefF4	*clefG2	*
*k[b-]	*k[b-]	*
=1	=1	=1
*^	*^	*
4c	2C	4g	8fL)	.
.	.	.	8e	.
4E 4B-	.	4re	8d	.
.	.	.	8cJ	.
*	*	*v	*v	*
=	=	=	=
8rA	2FF 2F	8r	pp
8FL 8A 8c	.	8fL 8a 8cc	.
8F 8A 8d	.	8f^ 8a 8dd	.
8FJ 8A 8c	.	8fJ 8a 8cc	.
=	=	=	=
8rA	2FF 2F	8r	.
8GL 8B- 8c	.	8eL 8g 8cc	.
8G 8B- 8d	.	8e^ 8g 8dd	.
8GJ 8B- 8c	.	8eJ 8g 8cc	.
=	=	=	=
8rA	2FF 2F	8r	.
8GL 8B- 8e	.	8gL 8b- 8ee	.
8G 8B- 8f	.	8g^ 8b- 8ff	.
8GJ 8B- 8e	.	8gJ 8b- 8ee	.
=	=	=	=
!	!	!	!LO:DY:a
8rA	2FF 2F	8r	<
8AL 8c 8f	.	8aL 8cc 8ff	.
8A 8c 8g	.	8a^ 8cc 8gg	.
8AJ 8c 8f	.	8aJ 8cc 8ff	.
=	=	=	=
8rA	2DD-X 2D-X	8r	[
8A-XL 8Bn 8f	.	8a-XL 8bn 8aa-X	.
8A- 8B 8f	.	8a- 8b 8gg	.
8A-J 8B 8f	.	8a-J 8b 8ff	.
=	=	=	=
8rA	2CC 2C	8r	.
8AnL 8c 8f	.	8anL 8cc 8aan	.
8A 8c 8f	.	8a 8cc 8gg	.
8AJ 8c 8f	.	8aJ 8cc 8ff	.
*v	*v	*	*
=	=	=
*-	*-	*-
!!!system-decoration: {(s1,s2)}
